build/img/landings/target/tar-yl-3.svg

<svg width="269" height="228" viewBox="0 0 269 228" fill="none" xmlns="http://www.w3.org/2000/svg">
<path d="M362.814 2.67285H2.65234V224.748H362.814V2.67285Z" fill="#F9D84E"/>
<path d="M362.99 227.4H2.65215C1.23767 227.4 0 226.162 0 224.747V2.67265C0 1.25818 1.23767 0.0205078 2.65215 0.0205078H362.814C364.228 0.0205078 365.466 1.25818 365.466 2.67265V224.747C365.643 226.162 364.405 227.4 362.99 227.4ZM5.30429 222.095H360.161V5.3248H5.30429V222.095Z" fill="black"/>
<path d="M182.646 141.824C182.116 141.824 181.585 141.647 181.055 141.293L1.2392 4.79597C0.00152802 3.91193 -0.17526 2.32068 0.708789 1.08301C1.59284 -0.154655 3.18408 -0.331551 4.42175 0.552498L182.646 135.812L361.401 0.552498C362.638 -0.331551 364.23 -0.154655 365.114 1.08301C365.998 2.32068 365.821 3.91193 364.583 4.79597L184.237 141.293C183.707 141.647 183.176 141.824 182.646 141.824Z" fill="black"/>
</svg>

<svg width="269" height="228" fill="none" xmlns="http://www.w3.org/2000/svg"><path d="M362.814 2.673H2.652v222.075h360.162V2.673z" fill="#F9D84E"/><path d="M362.99 227.4H2.652C1.238 227.4 0 226.162 0 224.747V2.673C0 1.258 1.238.02 2.652.02h360.162c1.414 0 2.652 1.237 2.652 2.652v222.074c.177 1.415-1.061 2.653-2.476 2.653zM5.304 222.095h354.857V5.325H5.304v216.77z" fill="#000"/><path d="M182.646 141.824c-.53 0-1.061-.177-1.591-.531L1.239 4.796C.002 3.912-.175 2.321.71 1.083 1.593-.155 3.184-.332 4.422.553l178.224 135.259L361.401.552c1.237-.884 2.829-.707 3.713.531.884 1.238.707 2.829-.531 3.713L184.237 141.293c-.53.354-1.061.531-1.591.531z" fill="#000"/></svg>
